!!!SOCIAL_FUNCTION:	songs of the sun dance
!!!PDT:	1922
!!!OTL: No_22_Sun_Dance_Song_(e).krn
!!!REG: Southwest
!!!LANG: Non-Tone
!!!LING_GROUP: Uto-Aztecan
**kern	**kern
*staff2	*staff1
=1-	=1-
*clefF4	*clefF4
*k[b-e-]	*k[b-e-]
*M3/8	*M3/8
8GG/L	4.f\
8GG/	.
8GG/J	.
=2	=2
8GG/L	16f\LL
.	[16e-\
8GG/	16e-\]
.	16d\J
8GG/J	8B-\J
=3	=3
4.r	4.f\
=4	=4
4.r	4f\
.	8e-\
=5	=5
4.r	4.f\
=6	=6
4.r	16f\LL
.	[16e-\
.	16e-\]
.	16d\
.	32B-\K
.	16.F\JJ
=7	=7
4.r	4.B-\
=8	=8
4.r	8B-\L
.	16G\L
.	16F\J
.	8F\J
=9	=9
4.r	8B-\L
.	8B-\
.	8B-\J
=10	=10
4.r	32c\LLK
.	16.B-\J
.	8B-\
.	8B-\J
=11||	=11||
*M2/8	*M2/8
4r	8B-\
.	8r
=12||	=12||
*M3/8	*M3/8
4.r	8d\
.	4d\
=13	=13
4.r	16d\LL
.	16B-\J
.	8B-\
.	8G\J
=14||	=14||
*M2/8	*M2/8
4r	4F\
=15	=15
4r	[4F\
=16	=16
4r	8F\L]
.	8E-\J
=17	=17
4r	8F\L
.	16G\L
.	16F\JJ
=18	=18
4r	8F\L
.	8F\J
=19	=19
4r	32G\LLK
.	16.F\J
.	8F\J
=20||	=20||
*M3/8	*M3/8
4.r	4.F\
=21	=21
4.r	8F\L
.	16G\L
.	16F\J
.	8F\J
=22	=22
4.r	4.F\
=23	=23
4.r	8B-\
.	4B-\
=24	=24
4.r	8B-\L
.	16G\L
.	16F\J
.	8F\J
=25	=25
4.r	8B-\L
.	8B-\
.	8B-\J
=26	=26
4.r	32c\LLK
.	16.B-\J
.	8B-\
.	8B-\J
=27||	=27||
*M2/8	*M2/8
4r	8B-\
.	8r
=28||	=28||
*M3/8	*M3/8
4.r	8d\
.	4d\
=29	=29
4.r	16d\LL
.	16B-\J
.	8B-\
.	8G\J
=30||	=30||
*M2/8	*M2/8
4r	4F\
=31	=31
4r	[4F\
=32	=32
4r	8F\L]
.	8E-\J
=33	=33
4r	8F\L
.	16G\L
.	16F\JJ
=34	=34
4r	8F\L
.	8F\J
=35	=35
4r	32G\LLK
.	16.F\J
.	8F\J
=36	=36
4r	4F\
==	==
*-	*-
